assets/flags/TG.svg

<svg width="21" height="15" xmlns="http://www.w3.org/2000/svg"><defs><linearGradient x1="50%" y1="0%" x2="50%" y2="100%" id="a"><stop stop-color="#FFF" offset="0%"/><stop stop-color="#F0F0F0" offset="100%"/></linearGradient><linearGradient x1="50%" y1="0%" x2="50%" y2="100%" id="b"><stop stop-color="#FFD44D" offset="0%"/><stop stop-color="#FFCD2F" offset="100%"/></linearGradient><linearGradient x1="50%" y1="0%" x2="50%" y2="100%" id="c"><stop stop-color="#159A74" offset="0%"/><stop stop-color="#0C6A4F" offset="100%"/></linearGradient><linearGradient x1="50%" y1="0%" x2="50%" y2="100%" id="d"><stop stop-color="#ED1F45" offset="0%"/><stop stop-color="#D01739" offset="100%"/></linearGradient></defs><g fill="none" fill-rule="evenodd"><path fill="url(#a)" d="M0 0h21v15H0z"/><path fill="url(#b)" d="M0 0h21v15H0z"/><path d="M9 0h12v3H9V0zm0 6h12v3H9V6zm-9 6h21v3H0v-3z" fill="url(#c)"/><path fill="url(#d)" d="M0 0h9v9H0z"/><path fill="url(#a)" d="M4.5 5.67 2.737 6.927l.65-2.065-1.74-1.29 2.165-.019L4.5 1.5l.688 2.053 2.165.02-1.74 1.289.65 2.065z"/></g></svg>

<?xml version="1.0" encoding="UTF-8"?>
<svg width="21px" height="15px" viewBox="0 0 21 15" version="1.1" xmlns="http://www.w3.org/2000/svg" xmlns:xlink="http://www.w3.org/1999/xlink">
    <!-- Generator: sketchtool 46 (44423) - http://www.bohemiancoding.com/sketch -->
    <title>TG</title>
    <desc>Created with sketchtool.</desc>
    <defs>
        <linearGradient x1="50%" y1="0%" x2="50%" y2="100%" id="linearGradient-1">
            <stop stop-color="#FFFFFF" offset="0%"></stop>
            <stop stop-color="#F0F0F0" offset="100%"></stop>
        </linearGradient>
        <linearGradient x1="50%" y1="0%" x2="50%" y2="100%" id="linearGradient-2">
            <stop stop-color="#FFD44D" offset="0%"></stop>
            <stop stop-color="#FFCD2F" offset="100%"></stop>
        </linearGradient>
        <linearGradient x1="50%" y1="0%" x2="50%" y2="100%" id="linearGradient-3">
            <stop stop-color="#159A74" offset="0%"></stop>
            <stop stop-color="#0C6A4F" offset="100%"></stop>
        </linearGradient>
        <linearGradient x1="50%" y1="0%" x2="50%" y2="100%" id="linearGradient-4">
            <stop stop-color="#ED1F45" offset="0%"></stop>
            <stop stop-color="#D01739" offset="100%"></stop>
        </linearGradient>
    </defs>
    <g id="Symbols" stroke="none" stroke-width="1" fill="none" fill-rule="evenodd">
        <g id="TG">
            <rect id="FlagBackground" fill="url(#linearGradient-1)" x="0" y="0" width="21" height="15"></rect>
            <rect id="Mask-Copy" fill="url(#linearGradient-2)" x="0" y="0" width="21" height="15"></rect>
            <path d="M9,0 L21,0 L21,3 L9,3 L9,0 Z M9,6 L21,6 L21,9 L9,9 L9,6 Z M0,12 L21,12 L21,15 L0,15 L0,12 Z" id="Rectangle-537" fill="url(#linearGradient-3)"></path>
            <rect id="Rectangle-1568" fill="url(#linearGradient-4)" x="0" y="0" width="9" height="9"></rect>
            <polygon id="Star-8" fill="url(#linearGradient-1)" points="4.5 5.67000005 2.73664424 6.92705098 3.38726383 4.8615499 1.64683045 3.57294902 3.81229123 3.55345008 4.5 1.5 5.18770877 3.55345008 7.35316955 3.57294902 5.61273617 4.8615499 6.26335576 6.92705098"></polygon>
        </g>
    </g>
</svg>
